Sources/FrostedUI/Resources/Icons.xcassets/bitcoin16.imageset/bitcoin-16.svg

<svg width="16" height="16" viewBox="0 0 16 16" fill="none" xmlns="http://www.w3.org/2000/svg" data-fui-icon="true">
  <g clip-path="url(#clip0_882_378)">
    <path
      d="M8 0C12.4183 0 16 3.58172 16 8C16 12.4183 12.4183 16 8 16C3.58172 16 0 12.4183 0 8C0 3.58172 3.58172 0 8 0ZM8 1.5C4.41015 1.5 1.5 4.41015 1.5 8C1.5 11.5899 4.41015 14.5 8 14.5C11.5899 14.5 14.5 11.5899 14.5 8C14.5 4.41015 11.5899 1.5 8 1.5ZM9.75 2.75C10.1642 2.75 10.5 3.08579 10.5 3.5V4.16797C11.3784 4.5165 12 5.37253 12 6.375C12 7.00448 11.7532 7.57499 11.3535 8C11.7532 8.42501 12 8.99552 12 9.625C12 10.6273 11.3782 11.4824 10.5 11.8311V12.5C10.5 12.9142 10.1642 13.25 9.75 13.25C9.33579 13.25 9 12.9142 9 12.5V12H7.5V12.5C7.5 12.9142 7.16421 13.25 6.75 13.25C6.33579 13.25 6 12.9142 6 12.5V12H4.75C4.33579 12 4 11.6642 4 11.25C4 10.8358 4.33579 10.5 4.75 10.5H5V5.5H4.75C4.33579 5.5 4 5.16421 4 4.75C4 4.33579 4.33579 4 4.75 4H6V3.5C6 3.08579 6.33579 2.75 6.75 2.75C7.16421 2.75 7.5 3.08579 7.5 3.5V4H9V3.5C9 3.08579 9.33579 2.75 9.75 2.75ZM6.5 10.5H9.625C10.1082 10.5 10.5 10.1082 10.5 9.625C10.5 9.14175 10.1082 8.75 9.625 8.75H6.5V10.5ZM6.5 7.25H9.625C10.1082 7.25 10.5 6.85825 10.5 6.375C10.5 5.89175 10.1082 5.5 9.625 5.5H6.5V7.25Z"
      fill="currentColor"
    />
  </g>
  <defs>
    <clipPath id="clip0_882_378"><path fill="currentColor" d="M0 0H16V16H0z" /></clipPath>
  </defs>
</svg>

<svg xmlns="http://www.w3.org/2000/svg" width="16" height="16" fill="none" data-fui-icon="true" viewBox="0 0 16 16"><g clip-path="url(#a)"><path fill="currentColor" d="M8 0a8 8 0 1 1 0 16A8 8 0 0 1 8 0m0 1.5a6.5 6.5 0 1 0 0 13 6.5 6.5 0 0 0 0-13m1.75 1.25a.75.75 0 0 1 .75.75v.668A2.37 2.37 0 0 1 12 6.375c0 .63-.247 1.2-.646 1.625.4.425.646.996.646 1.625a2.37 2.37 0 0 1-1.5 2.206v.669a.75.75 0 0 1-1.5 0V12H7.5v.5a.75.75 0 0 1-1.5 0V12H4.75a.75.75 0 0 1 0-1.5H5v-5h-.25a.75.75 0 0 1 0-1.5H6v-.5a.75.75 0 0 1 1.5 0V4H9v-.5a.75.75 0 0 1 .75-.75M6.5 10.5h3.125a.875.875 0 0 0 0-1.75H6.5zm0-3.25h3.125a.875.875 0 0 0 0-1.75H6.5z"/></g><defs><clipPath id="a"><path fill="currentColor" d="M0 0h16v16H0z"/></clipPath></defs></svg>
